icons/media/pause-square-24.svg

<svg width="24" height="24" viewBox="0 0 24 24" fill="none" xmlns="http://www.w3.org/2000/svg">
<path fill-rule="evenodd" clip-rule="evenodd" d="M3.75 2C2.7835 2 2 2.7835 2 3.75V20.25C2 21.2165 2.7835 22 3.75 22H20.25C21.2165 22 22 21.2165 22 20.25V3.75C22 2.7835 21.2165 2 20.25 2H3.75ZM3.5 3.75C3.5 3.61193 3.61193 3.5 3.75 3.5H20.25C20.3881 3.5 20.5 3.61193 20.5 3.75V20.25C20.5 20.3881 20.3881 20.5 20.25 20.5H3.75C3.61193 20.5 3.5 20.3881 3.5 20.25V3.75Z" fill="black"/>
<path fill-rule="evenodd" clip-rule="evenodd" d="M9.75 7C10.1642 7 10.5 7.33579 10.5 7.75V16.25C10.5 16.6642 10.1642 17 9.75 17C9.33579 17 9 16.6642 9 16.25V7.75C9 7.33579 9.33579 7 9.75 7ZM14.25 7C14.6642 7 15 7.33579 15 7.75V16.25C15 16.6642 14.6642 17 14.25 17C13.8358 17 13.5 16.6642 13.5 16.25V7.75C13.5 7.33579 13.8358 7 14.25 7Z" fill="black"/>
</svg>

<svg xmlns="http://www.w3.org/2000/svg" width="24" height="24"><path fill-rule="evenodd" d="M3.75 2A1.75 1.75 0 002 3.75v16.5c0 .966.784 1.75 1.75 1.75h16.5A1.75 1.75 0 0022 20.25V3.75A1.75 1.75 0 0020.25 2H3.75zM3.5 3.75a.25.25 0 01.25-.25h16.5a.25.25 0 01.25.25v16.5a.25.25 0 01-.25.25H3.75a.25.25 0 01-.25-.25V3.75z"/><path fill-rule="evenodd" d="M9.75 7a.75.75 0 01.75.75v8.5a.75.75 0 01-1.5 0v-8.5A.75.75 0 019.75 7zm4.5 0a.75.75 0 01.75.75v8.5a.75.75 0 01-1.5 0v-8.5a.75.75 0 01.75-.75z"/></svg>
